X:1
T:Miss Anne Gordon
T:Miss Anne Gordon
T:William Marshall
C:William Marshall
%%score { 1 | 2 }
L:1/8
M:4/4
K:F
V:1 treble nm="Slowly"
V:2 bass 
V:1
 A | F/F/F (F>d) c<F A<f | F/F/F (F>G) AG (D>E) | F/F/F (F>d) c<F A<g | f<d c>A A>G D :| e | %6
 f<A f<a c<f Aa | f<c f>a g2 (d>e) | f<A f<a c>f a>g | f<A A/A/A G2 De | f<A f<a c<f Aa | %11
 f<c f>a g2 (d>e) | f>a g>b a<f g>e | [Af]<A A/A/A A>G D |] %14
V:2
 z | [F,,F,]2 [F,,F,]2 [F,,F,]2 [F,,F,]2 | [F,,F,]2 [F,,F,]2 [C,C]2 [C,B,]2 | %3
 [F,A,]2 [F,,F,]2 [F,,F,]2 [F,,F,]2 | [F,,F,]2 [F,,F,]2 [C,C]2 [C,B,] :| x | %6
 [F,A,C]2 [F,A,C]2 [F,A,C]2 [F,A,C]2 | [F,A,C]2 [F,A,C]2 [C,C]2 [C,B,C]2 | %8
 [F,A,C]2 [F,A,C]2 [F,A,C]2 [F,A,C]2 | [F,A,C]2 [F,A,C]2 [C,C]2 [C,B,C]2 | %10
 [F,A,C]2 [F,A,C]2 [F,A,C]2 [F,A,C]2 | [F,A,C]2 [F,A,C]2 [C,C]2 [C,B,C]2 | %12
 [F,A,C]2 [E,G,C]2 [F,A,C]2 [C,C]2 | [F,,F,]2 [F,,F,]2 [C,,C,]2 [C,,C,] |] %14

